X:1
T:Resonet in Laudibus, 77.88 refrain
T:Resonet in Laudibus, 77.88 refrain
T:14th Century German carol melody
T:Public Domain Courtesy of the Cyber Hymnal™
C:14th Century German carol melody
Z:Public Domain
Z:Courtesy of the Cyber Hymnal™
%%score ( 1 2 ) ( 3 4 )
L:1/8
Q:1/4=110
M:none
K:Eb
V:1 treble 
V:2 treble 
V:3 bass 
V:4 bass 
V:1
 B2 G E2 G | B2 c B3 | B2 GE EG | B2 c [EB]3 | A2 AA A[DB] | A2 G F2 G | B2 G E2 G | %7
 F2 E [CF]2 [DG] | [B,E]3 [B,E]2 E | B2 BB B[AB] | e2 d c2 B | [Ge]2 [Fd] [Gc]2 [EB] | %12
 [FB]2 [F=A] [DFB]3 | E2 FG GA | B2 A G2 A | [EF]2 [DF] [B,E]3 | [DB]3 [EG]3 | [DB]3 [EG]3 | %18
 E2 F G2 B | A2 G F2 G | [B,E]2 |] %21
V:2
 B,3 C3 | E3 E3 | B,3 C3 | E3 x3 | F3 F2 x | E3 D3 | [B,D]3 C3 | C3- x3 | x5 E | x6 | B3 G3 | x6 | %12
 x6 | x3 E3 | [B,E]3 [CE]3 | x6 | x6 | x6 | x3 E3 | E3 D3 | x2 |] %21
V:3
 [E,G,]3 [C,G,]3 | E,3 [E,G,]3 | [E,G,]3 [C,G,]3 | E,3 [E,G,]3 | [F,C]3- [F,C]2 [G,B,] | %5
 [C,A,]2 [E,B,] [B,,B,]3 | G,,3 C,3 | A,,2 C, A,,2 B,, | [E,G,]3 [E,G,]2 E, | %9
 B,2 [A,B,] [G,B,]2 [F,A,] | [G,B,]3 E,3 | [C,G,]2 [D,B,] [E,G,]2 [G,B,] | [F,C]2 [F,C] B,,3 | %13
 [E,G,]3 [C,G,]3 | G,,3 B,,2 A,, | [B,,B,]2 [B,,A,] [E,G,]3 | [G,,B,]3 [C,C]3 | [G,,B,]3 [C,C]3 | %18
 [A,C]3 [G,B,]3 | [F,C]3 [B,,A,-]3 | [E,A,]2 |] %21
V:4
 x6 | G,,2 G,, x3 | x6 | G,,2 G,, x3 | x6 | x6 | x6 | x6 | x5 E, | x6 | x6 | x6 | x6 | x6 | x6 | %15
 x6 | x6 | x6 | x6 | x6 | x2 |] %21

